Papirus/24x24/panel/google-chrome-no-notification-disabled.svg

<?xml version="1.0" encoding="UTF-8" standalone="no"?>
<svg xmlns:dc="http://purl.org/dc/elements/1.1/" xmlns:cc="http://creativecommons.org/ns#" xmlns:rdf="http://www.w3.org/1999/02/22-rdf-syntax-ns#" xmlns:svg="http://www.w3.org/2000/svg" xmlns="http://www.w3.org/2000/svg" version="1.1" id="svg2" height="24" viewBox="0 0 6.7733335 6.7733335" width="24">
    <metadata id="metadata18">
        <rdf:RDF>
            <cc:Work rdf:about="">
                <dc:format>
                    image/svg+xml
                </dc:format>
                <dc:type rdf:resource="http://purl.org/dc/dcmitype/StillImage"/>
                <dc:title/>
            </cc:Work>
        </rdf:RDF>
    </metadata>
    <path id="path4137" d="M 3.3866667,1.1288891 A 2.2577776,2.2577776 0 0 0 1.8052301,1.7760158 l 0.7777648,1.34717 A 0.84666669,0.84666669 0 0 1 3.3866667,2.5400002 l 2.0918619,0 A 2.2577776,2.2577776 0 0 0 3.3866667,1.1288891 Z M 1.6084463,1.9998092 A 2.2577776,2.2577776 0 0 0 1.1288889,3.3866668 2.2577776,2.2577776 0 0 0 2.7841884,5.5601087 L 3.5608509,4.2145922 A 0.84666669,0.84666669 0 0 1 3.3866667,4.2333335 0.84666669,0.84666669 0 0 1 2.6546528,3.809449 l -0.0011,5.512e-4 -1.0451065,-1.810191 z M 3.3866667,2.8222224 A 0.56444441,0.56444441 0 0 0 2.8222223,3.3866668 0.56444441,0.56444441 0 0 0 3.3866667,3.9511113 0.56444441,0.56444441 0 0 0 3.9511112,3.3866668 0.56444441,0.56444441 0 0 0 3.3866667,2.8222224 Z m 0.6294879,0 A 0.84666669,0.84666669 0 0 1 4.2333334,3.3866668 0.84666669,0.84666669 0 0 1 4.1192318,3.809449 l 5.644e-4,5.644e-4 -1.0451041,1.8101908 A 2.2577776,2.2577776 0 0 0 3.3866667,5.6444442 2.2577776,2.2577776 0 0 0 5.6444445,3.3866664 2.2577776,2.2577776 0 0 0 5.5711325,2.822222 l -1.5549781,0 z" style="opacity:0.3;fill:#ffffff;fill-opacity:1"/>
</svg>

<?xml version="1.0" encoding="UTF-8" standalone="no"?>
<svg id="svg2" xmlns:rdf="http://www.w3.org/1999/02/22-rdf-syntax-ns#" xmlns="http://www.w3.org/2000/svg" height="24" viewBox="0 0 6.7733335 6.7733335" width="24" version="1.1" xmlns:cc="http://creativecommons.org/ns#" xmlns:dc="http://purl.org/dc/elements/1.1/">
 <metadata id="metadata18">
  <rdf:RDF>
   <cc:Work rdf:about="">
    <dc:format>image/svg+xml</dc:format>
    <dc:type rdf:resource="http://purl.org/dc/dcmitype/StillImage"/>
    <dc:title/>
   </cc:Work>
  </rdf:RDF>
 </metadata>
 <path id="path4137" opacity=".3" d="m3.3867 1.1289a2.2578 2.2578 0 0 0 -1.5815 0.6471l0.77776 1.3472a0.84667 0.84667 0 0 1 0.8037 -0.5832h2.0919a2.2578 2.2578 0 0 0 -2.0919 -1.4111zm-1.7783 0.8709a2.2578 2.2578 0 0 0 -0.4795 1.3869 2.2578 2.2578 0 0 0 1.6553 2.1734l0.7767-1.3455a0.84667 0.84667 0 0 1 -0.1742 0.0187 0.84667 0.84667 0 0 1 -0.732 -0.4239l-0.0011 0.0005512-1.0451-1.8102zm1.7783 0.8224a0.56444 0.56444 0 0 0 -0.5645 0.5645 0.56444 0.56444 0 0 0 0.5645 0.5644 0.56444 0.56444 0 0 0 0.5644 -0.5644 0.56444 0.56444 0 0 0 -0.5644 -0.5645zm0.62949 0a0.84667 0.84667 0 0 1 0.2171 0.5645 0.84667 0.84667 0 0 1 -0.1141 0.4227l0.0005644 0.0005644-1.0451 1.8102a2.2578 2.2578 0 0 0 0.312 0.0242 2.2578 2.2578 0 0 0 2.2577 -2.2577 2.2578 2.2578 0 0 0 -0.0733 -0.5645h-1.555z" fill="#fff"/>
</svg>
